src/assets/svg/3-login-share-newsletter/6-close.svg

<svg width="21" height="21" viewBox="0 0 21 21" fill="none" xmlns="http://www.w3.org/2000/svg">
<path d="M5.44687 16.4718L4.52812 15.5531L9.58125 10.5L4.52812 5.44683L5.44687 4.52808L10.5 9.5812L15.5531 4.52808L16.4719 5.44683L11.4187 10.5L16.4719 15.5531L15.5531 16.4718L10.5 11.4187L5.44687 16.4718Z" fill="#E9E8E8"/>
</svg>

<svg width="21" height="21" fill="none" xmlns="http://www.w3.org/2000/svg"><path d="m5.447 16.472-.919-.919L9.581 10.5 4.528 5.447l.919-.919L10.5 9.581l5.053-5.053.919.919-5.053 5.053 5.053 5.053-.919.919-5.053-5.053-5.053 5.053Z" fill="#E9E8E8"/></svg>
